X: 1
T: Katharine Hooper of Saratoga
C: Ann Hooper
R: waltz
M: 3/4
L: 1/8
K: D
AG \
| "D"F3 A d2 | "G"B4 "A7"AG | "D"F2 A2 d2 | f3 g a2 \
| "G"B4 ef | "Em"g3 e d2 | "A"c2 d2 e2 | "A7"AB AG FE |
| "D"F3 A d2 | "G"B4 "A7"AG | "D"F2 A2 d2 | f3 g a2 \
| "G"g3 B d2 | "A7"c3 dec | "D"d6 | d4 :|
|: FE \
| "D"D3 F A2 | "Em"G4 B,D | "A"C2 D2 E2 | "A7"A,3 B, C2 \
| "Bm"D4 EF | "Em"G2 A2 B2 | "A"e3 fed | "A7"cB AG FE |
| "D"D3 A d2 | "G"B4 "A7"AG | "Bm"F2 A2 d2 | "D7"f3 g a2 \
| "G"b3 B d2 | "A7"c3 dec | "D"d6 | d4 |]
